X: 1
T:Miss Delicia Chisholm  "CYMRU"
M:C|
L:1/8
Q:80
C:W.Fraser
S:March
K:HP
|: f|
{g}A3/2B/2{gAd}A{e}G|
{dc}d3/2e/2{gfg}f2|
{g}f{AGAG}A{Gdc}d{g}f|  !
a3/4f/4{gef}e3/4d/4{gef}ef| |
{g}A3/2B/2{gAd}A{e}G|
{dc}d3/2e/2{gfg}f2|  !
{g}f{AGAG}A{g}f/4a3/4e3/4f/4|
{Gdc}d2{gdc}d:| |:
{g}f3/4g/4|  !
{ag}a3/2g/2{a}f{Gdc}d|
{g}A{Gdc}d{gfg}f2|
{g}f{AGAG}A{Gdc}d{g}f|  !
a3/4f/4{gef}e3/4d/4{gef}e{g}f3/4g/4| |
{ag}a3/2g/2{a}f{Gdc}d|
{g}A{Gdc}d{gfg}f2|  !
{g}f{AGAG}A{g}f/4a3/4e3/4f/4|
{Gdc}d2{gdc}d:| |:
e|  !
{g}A3/2B/2{Gdc}d{e}A|
{gBd}B{G}A{gfg}f2|
{g}f{AGAG}A{Gdc}d{g}f|  !
a3/4f/4{gef}e3/4d/4{gef}ef| |
{g}A3/2B/2{Gdc}d{e}A|
{gBd}B{G}A{gfg}f2|  !
{g}f{AGAG}A{g}f/4a3/4e3/4f/4|
{Gdc}d2{gdc}d:| |:
{gf}g|  !
{ag}a2{GdG}a3/2g/2|
{a}f{Gdc}d{ag}a3/2g/2|
{a}f{AGAG}A{Gdc}d{g}f|  !
a3/4f/4{gef}e3/4d/4{gef}e{gf}g| |
{ag}a2{GdG}a3/2g/2|
{a}f{Gdc}d{ag}a3/2g/2|  !
{a}f{AGAG}A{g}f/4a3/4e3/4f/4|
{Gdc}d2{gdc}d:|
